X: 31
M:2/4
L:1/16
K:A
((3uEFG)|"4"AGAE CEAc|e^dec Ac"0"ea|fae adaca|BABc dBGE|
|:vEG|BABG EGBc|dcdB GBed|cBcA EAcd|e^def .e2(fg)|
agae fdBG|ABcd eaec|dfed cBAG|A2A2A2:|


